X: 158
T:Credo Vilayge II
N: Derived from Jos1306-Credo_Vilayge_II.krn
C: Josquin des Prez
%%abc-version 2.0
%%abcx-abcm2ps-target-version 5.9.1 (29 Sep 2008)
%%abc-creator hum2abc beta
%%abcx-conversion-date 2019/02/12 16:15:46
%%abc-edited-by Jesse Rodin
%%abc-edited-by Jesse Rodin; Victoria Chang 2012/02/05
%%abcx-initial-encoding-date 2012/02/05/
%%humdrum-veritas 1204502116
%%humdrum-veritas-data 2034706607
%%linebreak <none>
%%barnumbers 0
L: 1/4
M: 2/1
Q: 1/2=120
%%staves [1 2 3 4]
V: 1 clef=treble
V: 2 clef=treble-8
V: 3 clef=treble-8
V: 4 clef=bass
K: C
[V:1] A8 | 
[V:2] A8 | 
[V:3] e8 | 
[V:4] A,8 | 
[V:1] A8 | 
[V:2] d8 | 
[V:3] f8 | 
[V:4] D,8 | 
[V:1] z4c4 | 
[V:2] c6B2 | 
[V:3] e4e4 | 
[V:4] A,6G,2 | 
[V:1] d4e4 | 
[V:2] A4G4 | 
[V:3] d4c4 | 
[V:4] F,4E,4 | 
[V:1] f3edcd2- | 
[V:2] A4f4 | 
[V:3] d8 | 
[V:4] D,8 | 
[V:1] dcBAB4 | 
[V:2] g4g4 | 
[V:3] d4z2d2 | 
[V:4] G,8 | 
[V:1] A2A2A2A2 | 
[V:2] f2d2f3e | 
[V:3] d2d2d2d2 | 
[V:4] D,8 | 
[V:1] c3BA2G2 | 
[V:2] c2c2c3A | 
[V:3] e4e4 | 
[V:4] A,8 | 
[V:1] F2F2_B2B2 | 
[V:2] A2_B3cde | 
[V:3] d2d2d2d2 | 
[V:4] D,4G,4 | 
[V:1] A2A2d2d2 | 
[V:2] f2d3efg | 
[V:3] d2d2d2d2 | 
[V:4] F,4_B,4 | 
[V:1] c2c2B2A2- | 
[V:2] a4z4 | 
[V:3] e2e2f2e2- | 
[V:4] A,3B,/C/D2C2- | 
[V:1] AGG4^F2 | 
[V:2] z8 | 
[V:3] edd4c2 | 
[V:4] C2B,2A,4 | 
[V:1] G2B4B2 | 
[V:2] z2g4g2 | 
[V:3] d4z2d2- | 
[V:4] G,8- | 
[V:1] B2B2B2B2 | 
[V:2] g2d2g2g2 | 
[V:3] d2d2d2d2 | 
[V:4] G,8 | 
[V:1] A4f4 | 
[V:2] f4z2d2 | 
[V:3] d2d2d2d2 | 
[V:4] z4D,4 | 
[V:1] e4d4 | 
[V:2] e2a3fg2 | 
[V:3] c4d4 | 
[V:4] A,4_B,4 | 
[V:1] c6c2 | 
[V:2] a4z2A2 | 
[V:3] e8 | 
[V:4] A,8 | 
[V:1] d2e2A2c2 | 
[V:2] B2c2d2A2 | 
[V:3] z2e2f2e2 | 
[V:4] z8 | 
[V:1] (3d2f2e2(3d2f2e2 | 
[V:2] a4z2a2- | 
[V:3] d2c2d2e2 | 
[V:4] z2A,2B,2C2 | 
[V:1] (3d2f2e2(3d2^c3B | 
[V:2] a2g2a2a2 | 
[V:3] f2d2e4 | 
[V:4] D2B,2A,4 | 
[V:1] d4z2d2 | 
[V:2] f4z2d2 | 
[V:3] d4d2d2 | 
[V:4] z2_B,4B,2 | 
[V:1] d2d2d2d2 | 
[V:2] f2d2f2g2 | 
[V:3] d2d2d4 | 
[V:4] _B,2B,2B,4 | 
[V:1] c4z4 | 
[V:2] a2A2A2A2 | 
[V:3] e2e2e2e2 | 
[V:4] A,2A,2C3B, | 
[V:1] z8 | 
[V:2] c3BA2G2 | 
[V:3] f3ed2^c2 | 
[V:4] A,2G,2F,2E,2 | 
[V:1] z2f2f4 | 
[V:2] A8 | 
[V:3] d4z2d2 | 
[V:4] D,8 | 
[V:1] e2d4^c2 | 
[V:2] z8 | 
[V:3] c2d2e4 | 
[V:4] z8 | 
[V:1] d2A2_B2A2 | 
[V:2] z2f2g2a2 | 
[V:3] d4z2d2 | 
[V:4] z2D,2G,2F,2 | 
[V:1] d3cA2_B2 | 
[V:2] f6_B2 | 
[V:3] d2d2d2d2 | 
[V:4] _B,3A,F,2G,2 | 
[V:1] A4z2G2 | 
[V:2] f4z2d2 | 
[V:3] d4z2B2 | 
[V:4] D,4z2G,2 | 
[V:1] A4B4 | 
[V:2] f4f4 | 
[V:3] c4d4 | 
[V:4] F,3E,D,4 | 
[V:1] c3BA2G2 | 
[V:2] g2G2c3B | 
[V:3] e4z2e2 | 
[V:4] C,4z2C,2 | 
[V:1] F2G3^FFE | 
[V:2] A2G2A4 | 
[V:3] d2c2d4 | 
[V:4] D,2E,2D,4 | 
[V:1] G2d3dd2 | 
[V:2] G4g3g | 
[V:3] d8 | 
[V:4] G,8 | 
[V:1] e2d3BB2 | 
[V:2] g2g2g3e | 
[V:3] z8 | 
[V:4] z8 | 
[V:1] c2A2B2c2 | 
[V:2] e2f2d2e2 | 
[V:3] z8 | 
[V:4] z8 | 
[V:1] d3cBAc2- | 
[V:2] f2g3fed | 
[V:3] z8 | 
[V:4] z8 | 
[V:1] cBA4^G2 | 
[V:2] c2d2B4 | 
[V:3] z8 | 
[V:4] z8 | 
[V:1] A4z4 | 
[V:2] A4z4 | 
[V:3] z2e2f2e2 | 
[V:4] z2A,2F,2G,2 | 
[V:1] z2A2_B2A2 | 
[V:2] z4z2A2 | 
[V:3] c2d2d2^c2 | 
[V:4] A,2F,2G,2A,2 | 
[V:1] F2G2G2^F2 | 
[V:2] BABGA4 | 
[V:3] d8 | 
[V:4] D,2G,2D,4 | 
[V:1] G4E2F2 | 
[V:2] G2B2c2d2 | 
[V:3] z8 | 
[V:4] G,4z4 | 
[V:1] G2E2F2G2 | 
[V:2] B2c2d2e2 | 
[V:3] z8 | 
[V:4] z8 | 
[V:1] A2z2z4 | 
[V:2] z8 | 
[V:3] c2d2e2f2 | 
[V:4] z2F,2G,2A,2 | 
[V:1] z8 | 
[V:2] z8 | 
[V:3] d2e2f2g2 | 
[V:4] _B,2G,2A,2B,2 | 
[V:1] z8 | 
[V:2] e2f2g2a2- | 
[V:3] z8 | 
[V:4] C2A,2_B,2C2 | 
[V:1] z8 | 
[V:2] agg4^f2 | 
[V:3] z8 | 
[V:4] D2G,2A,4 | 
[V:1] z4z2G2 | 
[V:2] g4z2G2 | 
[V:3] z4z2d2 | 
[V:4] G,8 | 
[V:1] G2G2G2G2 | 
[V:2] c2B2c2B2 | 
[V:3] e2d2e2d2 | 
[V:4] z8 | 
[V:1] G4G2G2 | 
[V:2] G4z4 | 
[V:3] d4e2d2 | 
[V:4] z2G,2C2B,2 | 
[V:1] G2F2G4- | 
[V:2] z8 | 
[V:3] e2c2d4 | 
[V:4] C2A,2G,4 | 
[V:1] G2FGA4 | 
[V:2] z2c4c2 | 
[V:3] e4z2e2 | 
[V:4] C4z2A,2 | 
[V:1] A2_B2A2B2- | 
[V:2] d2_B2c2d2 | 
[V:3] f2e4d2 | 
[V:4] F,2G,2A,2D,2 | 
[V:1] BAG4^F2 | 
[V:2] G4A4 | 
[V:3] d2c2d4 | 
[V:4] E,4D,4 | 
[V:1] G4z2G2 | 
[V:2] z2c2c4 | 
[V:3] e8 | 
[V:4] z4C,4 | 
[V:1] A3GABc2- | 
[V:2] A2d2c2A2 | 
[V:3] f8 | 
[V:4] F,2D,2F,3E, | 
[V:1] cBG2B2A2- | 
[V:2] c3BG2F2 | 
[V:3] e4d4 | 
[V:4] C,D,E,F,G,2D,2 | 
[V:1] AGG4^F2 | 
[V:2] G4A4 | 
[V:3] c4d4 | 
[V:4] E,4D,4 | 
[V:1] G8 ||  
[V:2] G8 ||  
[V:3] d8 ||  
[V:4] G,8 ||  
[V:1]  [K:C] [K:clef=treble][M:2/1]A4A2A2- | 
[V:2]  [K:C] [K:clef=treble-8][M:2/1]f4f2f2- | 
[V:3]  [K:C] [K:clef=treble-8][M:2/1]d4d2d2- | 
[V:4]  [K:C] [K:clef=bass][M:2/1]z8 | 
[V:1] A2A2B2A2 | 
[V:2] f2f2f2f2 | 
[V:3] d2d2d2d2 | 
[V:4] z8 | 
[V:1] B2c2A4 | 
[V:2] f2e2f4 | 
[V:3] d2c2d4 | 
[V:4] z8 | 
[V:1] G4z2G2 | 
[V:2] g2c3def | 
[V:3] e8 | 
[V:4] z8 | 
[V:1] B2c2d2e2- | 
[V:2] g3fd2c2- | 
[V:3] z2e2f2e2 | 
[V:4] z8 | 
[V:1] edd4^c2 | 
[V:2] c2B2A4 | 
[V:3] c2d2e4 | 
[V:4] z8 | 
[V:1] d2c4c2 | 
[V:2] a6a2 | 
[V:3] d2e4e2 | 
[V:4] z2A,4A,2 | 
[V:1] c2A2B2c2 | 
[V:2] a2a2g2e2 | 
[V:3] f3ed2c2 | 
[V:4] A,2F,2G,2A,2 | 
[V:1] A4z2d2- | 
[V:2] f6ef | 
[V:3] d8 | 
[V:4] D,8 | 
[V:1] d2cBe2d2- | 
[V:2] gdg4fe | 
[V:3] z8 | 
[V:4] G,4G,2G,2 | 
[V:1] d2cBe2d2- | 
[V:2] d2g3fd2 | 
[V:3] z8 | 
[V:4] G,4G,2G,2 | 
[V:1] dcA2BAGF | 
[V:2] e2f2d4 | 
[V:3] z8 | 
[V:4] G,2F,2G,4 | 
[V:1] E3DE4 | 
[V:2] c6BA | 
[V:3] z4z2e2 | 
[V:4] A,4C4 | 
[V:1] z8 | 
[V:2] d2c3BA2- | 
[V:3] f4e2d2 | 
[V:4] B,2A,4F,2 | 
[V:1] z2e2f4 | 
[V:2] A2G2A2a2- | 
[V:3] ^c3Bd4 | 
[V:4] E,4D,4 | 
[V:1] e2d4^c2 | 
[V:2] a2f2e4 | 
[V:3] z8 | 
[V:4] z8 | 
[V:1] d4z4 | 
[V:2] d4G2d2- | 
[V:3] z8 | 
[V:4] z2G,2G,2G,2 | 
[V:1] z8 | 
[V:2] dcA2_B3A | 
[V:3] z8 | 
[V:4] G,2F,2G,4 | 
[V:1] z4z2A2 | 
[V:2] FGA_Bcdc2- | 
[V:3] z2e2e2e2 | 
[V:4] A,4A,4 | 
[V:1] A2A2_B3A | 
[V:2] c2_BAGA_Bc | 
[V:3] f4e2d2- | 
[V:4] F,2F,2G,2G,2 | 
[V:1] A2G3^FFE | 
[V:2] d2G2A4 | 
[V:3] d2c2d4 | 
[V:4] D,2E,2D,4 | 
[V:1] G2G2G2G2 | 
[V:2] G4z2G2 | 
[V:3] d4d2d2 | 
[V:4] z2G,2B,2B,2 | 
[V:1] G2G2G2G2 | 
[V:2] B2B2G2G2 | 
[V:3] d2d2d2d2 | 
[V:4] G,2G,2B,2B,2 | 
[V:1] G2G2G2G2 | 
[V:2] B2B2G2G2 | 
[V:3] d2d2d2d2 | 
[V:4] G,2G,2B,2B,2 | 
[V:1] G2G2G2G2 | 
[V:2] B2B2G2G2 | 
[V:3] d2d2d2d2 | 
[V:4] G,2G,2B,2B,2 | 
[V:1] A4B4 | 
[V:2] c2c2B4 | 
[V:3] e4z2g2 | 
[V:4] A,4z2G,2 | 
[V:1] A2c2B2A2- | 
[V:2] z2c2d2d2 | 
[V:3] f2e4d2- | 
[V:4] A,2A,2D,4 | 
[V:1] AGG4^F2 | 
[V:2] G4A4 | 
[V:3] d2c2d4- | 
[V:4] E,4D,4 | 
[V:1] G4G2A2 | 
[V:2] G4d2e2 | 
[V:3] d4z4 | 
[V:4] z2_B,4C2 | 
[V:1] _B6AG | 
[V:2] f6ed | 
[V:3] z8 | 
[V:4] D6C_B, | 
[V:1] _B2A2z2B2- | 
[V:2] f2e2z2f2- | 
[V:3] z8 | 
[V:4] D2C2z2D2- | 
[V:1] B2AG_BAB2- | 
[V:2] f2edfef2- | 
[V:3] z8 | 
[V:4] D2C_B,DCD2- | 
[V:1] BAG4^F2 | 
[V:2] fed4c2 | 
[V:3] z8 | 
[V:4] D2_B,2A,4 | 
[V:1] G8 | 
[V:2] d4z4 | 
[V:3] z4B2c2 | 
[V:4] G,4z2E,2 | 
[V:1] z4z2B2 | 
[V:2] z8 | 
[V:3] d3dd4 | 
[V:4] F,2G,3G,G,2 | 
[V:1] c2d3dd2- | 
[V:2] e2f2g3g | 
[V:3] z8 | 
[V:4] z8 | 
[V:1] d2e2fde2- | 
[V:2] g4z4 | 
[V:3] z2c2d2c2 | 
[V:4] z8 | 
[V:1] edd4^c2 | 
[V:2] z4z2A2 | 
[V:3] f4e4 | 
[V:4] z8 | 
[V:1] d4z4 | 
[V:2] _B2A2_B2A2 | 
[V:3] d4d2d2 | 
[V:4] z2F,2G,2F,2 | 
[V:1] z8 | 
[V:2] _B2A2(3_B2G2A2 | 
[V:3] d2d2d2d2 | 
[V:4] G,2F,2G,2F,2 | 
[V:1] z8 | 
[V:2] (3_B2G2A2(3_B2G2g2- | 
[V:3] d2f2e2d2- | 
[V:4] G,2F,2G,2_B,2 | 
[V:1] z8 | 
[V:2] (3g2^f3eg4 | 
[V:3] d2c2d4- | 
[V:4] A,4G,4- | 
[V:1] d2B2c2d2- | 
[V:2] z2g2e2f2 | 
[V:3] d4z4 | 
[V:4] G,4z4 | 
[V:1] d2g3ff2 | 
[V:2] g4a4 | 
[V:3] z8 | 
[V:4] z8 | 
[V:1] e2d4cB | 
[V:2] g2f2e4 | 
[V:3] z8 | 
[V:4] z8 | 
[V:1] A4A2A2 | 
[V:2] z2f4f2 | 
[V:3] z2d4d2 | 
[V:4] z2D,4D,2 | 
[V:1] A2A2B4 | 
[V:2] f2f2g4- | 
[V:3] d2d2d4 | 
[V:4] D,2D,2G,4 | 
[V:1] c8 | 
[V:2] g2fga2A2 | 
[V:3] e4f4 | 
[V:4] C,4F,4 | 
[V:1] z8 | 
[V:2] _B2d2c2_B2- | 
[V:3] f2f2f2e2- | 
[V:4] _B,,2_B,2A,2G,2- | 
[V:1] z8 | 
[V:2] BAF2G4 | 
[V:3] edd4^c2 | 
[V:4] G,F,D,2E,4 | 
[V:1] z4d4- | 
[V:2] A4_B4- | 
[V:3] d8 | 
[V:4] D,4_B,,4- | 
[V:1] d2d2d2d2 | 
[V:2] B2_B2_B2_B2 | 
[V:3] f6f2 | 
[V:4] B,,2_B,,2B,,2B,,2 | 
[V:1] c_BAGB2A2- | 
[V:2] A2d4c2 | 
[V:3] f2f2f2e2 | 
[V:4] F,4z4 | 
[V:1] AGG4^F2 | 
[V:2] _B2G2A4 | 
[V:3] d4c4 | 
[V:4] z8 | 
[V:1] G8 | 
[V:2] G4z2B2 | 
[V:3] d8 | 
[V:4] z2G,2G,2G,2 | 
[V:1] z8 | 
[V:2] A2A2B4 | 
[V:3] z2d2d2d2 | 
[V:4] F,4G,4 | 
[V:1] z8 | 
[V:2] A2c2BAd2- | 
[V:3] c4d4 | 
[V:4] z2A,2G,2F,2 | 
[V:1] z4z2A2 | 
[V:2] d2^c2d4 | 
[V:3] z2e2f3d | 
[V:4] E,4D,4 | 
[V:1] G2F2E4 | 
[V:2] z8 | 
[V:3] efd4^c2 | 
[V:4] z4z2A,2 | 
[V:1] D4z2A2 | 
[V:2] z2G2G2F2 | 
[V:3] d8 | 
[V:4] B,B,B,B,B,2A,2- | 
[V:1] BBBBB2A2- | 
[V:2] G3AB2c2 | 
[V:3] z8 | 
[V:4] A,G,G,4F,2 | 
[V:1] AGG4^F2 | 
[V:2] B2G2A4 | 
[V:3] z8 | 
[V:4] G,4z4 | 
[V:1] [M:3/1]G8G4 | 
[V:2] [M:3/1]G8G4 | 
[V:3] [M:3/1]B8c4 | 
[V:4] [M:3/1]G,8E,4 | 
[V:1] F4_B8 | 
[V:2] _B6A2G4 | 
[V:3] d8d4 | 
[V:4] D,4G,6F,2 | 
[V:1] A8z4 | 
[V:2] F4f4g4 | 
[V:3] d4d4e4 | 
[V:4] D,8z4 | 
[V:1] z12 | 
[V:2] a4g6e2 | 
[V:3] d4B4z4 | 
[V:4] z12 | 
[V:1] z12 | 
[V:2] e4f6f2 | 
[V:3] c6c2c4 | 
[V:4] A,6A,2A,4 | 
[V:1] z12 | 
[V:2] f4f4g4 | 
[V:3] c4d8 | 
[V:4] A,4_B,8 | 
[V:1] z12 | 
[V:2] a4a4g4 | 
[V:3] e4f4e4 | 
[V:4] A,4F,4G,4- | 
[V:1] z12 | 
[V:2] g4^f6e2 | 
[V:3] d6B2c4 | 
[V:4] G,4A,8 | 
[V:1] z4d4d4 | 
[V:2] g8g4 | 
[V:3] d12 | 
[V:4] G,12 | 
[V:1] d6B2B4 | 
[V:2] g4g6e2 | 
[V:3] z12 | 
[V:4] z12 | 
[V:1] c4A4B4 | 
[V:2] e4f4d4 | 
[V:3] z12 | 
[V:4] z12 | 
[V:1] c4d8 | 
[V:2] e4f4g4- | 
[V:3] z12 | 
[V:4] z12 | 
[V:1] e4f4e4 | 
[V:2] g2f2a8 | 
[V:3] z4z4c4 | 
[V:4] z4z4A,4 | 
[V:1] d8^c4 | 
[V:2] g4a8 | 
[V:3] d4e8 | 
[V:4] _B,4A,8 | 
[V:1] [M:2/1]d4z2d2 | 
[V:2] [M:2/1]f6ed | 
[V:3] [M:2/1]d8 | 
[V:4] [M:2/1]D,6E,F, | 
[V:1] d6cB | 
[V:2] d2B4AG | 
[V:3] z2d2d4- | 
[V:4] G,4z2G,2 | 
[V:1] B6AG | 
[V:2] G2g2g4- | 
[V:3] d2cBB4- | 
[V:4] G,6F,E, | 
[V:1] G4c4 | 
[V:2] g2fee2f2- | 
[V:3] B2c4BA | 
[V:4] E,4A,4 | 
[V:1] d4e4 | 
[V:2] fed4^c2 | 
[V:3] B2A4G2 | 
[V:4] G,2F,2E,4 | 
[V:1] f6d2 | 
[V:2] d4z2f2 | 
[V:3] A8 | 
[V:4] D,8 | 
[V:1] e2f4ed | 
[V:2] e2a4g2 | 
[V:3] c4d4 | 
[V:4] A,4_B,4 | 
[V:1] c6BA | 
[V:2] a2A2c3d | 
[V:3] e8 | 
[V:4] A,3G,A,B,C2- | 
[V:1] G2A2B2c2 | 
[V:2] e2f2g2a2- | 
[V:3] z2c2d2f2- | 
[V:4] CB,A,2G,2F,2 | 
[V:1] d4c4- | 
[V:2] a2a4a2 | 
[V:3] f2edf2e2- | 
[V:4] D,4A,3B, | 
[V:1] c2B2A2G2 | 
[V:2] g3fede2 | 
[V:3] e2d2c2B2 | 
[V:4] C2G,2A,2E,2 | 
[V:1] F4G4- | 
[V:2] c2d4c2 | 
[V:3] A4G4 | 
[V:4] F,2D,2E,4 | 
[V:1] G2^F2F2E2 | 
[V:2] d3cA4 | 
[V:3] A8 | 
[V:4] D,8 | 
[V:1] G8 |]  
[V:2] G8 |]  
[V:3] B8 |]  
[V:4] G,8 |]  



